X:71
T: Thatch'd House, The
M:C|
L:1/8
B:Thompson's Compleat Collection of 200 Favourite Country Dances, vol. 1 (London, 1757)
Z:Transcribed and edited by Fynnian Titford-Mock, 2007
Z:abc's:AK/Fiddler's Companion
K:G
D|G/G/G BG d>edB|g>agB A>B AD|G/G/G BG d>edB|gedB G/G/G G:|
|:B/c/|d>edB gBdB|gBdB A/A/A AB/c/|d>edB gBdB|gBdB G/G/G G:|

